X:223
T:The Limerick Lasses
M:4/4
L:1/8
R:reel
D:Silly Wizard: Live Wizardry
D:Molloy, Peoples, Brady
D:Cherish the Ladies: At Home
Z:id:hn-reel-479
K:D
|:dBAF DEFD|~G3A BE~E2|dBAF DEFD|GBAG FD~D2:|
|:dcde ~f3d|efed cA~A2|(3Bcd ef g2ag|fdec d2dA:|
|:BdAd BdAd|(3Bcd ef gfed|BdAd Bdag|f2eg fd~d2:|
